X: 54
T: Missa De Sancto Antonio / Credo
N: Derived from Rue1012c-Missa_De_Sancto_Antonio-Credo.krn
C: Pierre de la Rue
%%abc-version 2.0
%%abcx-abcm2ps-target-version 5.9.1 (29 Sep 2008)
%%abc-creator hum2abc beta
%%abcx-conversion-date 2019/02/17 08:01:11
%%abc-edited-by Jesse Rodin
%%abc-edited-by Chris Gage 01-11-2013
%%abcx-initial-encoding-date 2013/07/16/
%%humdrum-veritas 622342544
%%humdrum-veritas-data 4080388489
%%linebreak <none>
%%barnumbers 0
L: 1/4
M: 3/1
Q: 1/2=120
%%staves [1 2 3 4]
V: 1 clef=treble
V: 2 clef=treble-8
V: 3 clef=treble-8
V: 4 clef=bass
K: C
[V:1] z12 | 
[V:2] B8d4 | 
[V:3] z12 | 
[V:4] E,8F,4 | 
[V:1] z12 | 
[V:2] e2g4fed4 | 
[V:3] z12 | 
[V:4] E,8G,4 | 
[V:1] E8G4 | 
[V:2] c3de2e4d2 | 
[V:3] z12 | 
[V:4] A,2C4B,A,B,4 | 
[V:1] A2c4BAB4 | 
[V:2] e4e2f4d2 | 
[V:3] z12 | 
[V:4] A,4z2D4B,2 | 
[V:1] A2d4B2c2B2 | 
[V:2] e2d4g2f2g2- | 
[V:3] z12 | 
[V:4] C2B,2G,3B,A,2G,2 | 
[V:1] G4z2c3BB2 | 
[V:2] gfe2d2c2e4- | 
[V:3] z12 | 
[V:4] C3B,B,2A,3G,G,2 | 
[V:1] A3GG2A2E4 | 
[V:2] e4z4B4 | 
[V:3] z12 | 
[V:4] A,2E,4D,2E,F,G,E, | 
[V:1] D2EFGEF2E4 | 
[V:2] A2B3cdBc4 | 
[V:3] z12 | 
[V:4] F,2E,4D,2E,2C,2 | 
[V:1] D2E2DCB,A,B,4 | 
[V:2] B2c3BA4^G2 | 
[V:3] z12 | 
[V:4] D,2C,2F,4E,4 | 
[V:1] z12 | 
[V:2] A4z2c3BA2 | 
[V:3] c12- | 
[V:4] z2C3B,A,G,F,4 | 
[V:1] z2c3BA2G2F2 | 
[V:2] G2F2E2A2z4 | 
[V:3] c12 | 
[V:4] E,2F,2C,2C3B,A,2 | 
[V:1] E2D2G2GFE2EF | 
[V:2] z4z4z2e2 | 
[V:3] B12- | 
[V:4] G,2F,2E,2D,2G,2G,F, | 
[V:1] GAB4A4^G2 | 
[V:2] g3fede3d/c/B2 | 
[V:3] B12 | 
[V:4] E,2E,F,G,2A,2E,4 | 
[V:1] A8z4 | 
[V:2] A8G4 | 
[V:3] c6A2B4 | 
[V:4] A,6B,CD4 | 
[V:1] A4A2Bcd4 | 
[V:2] A2c3BA4^G2 | 
[V:3] A8z4 | 
[V:4] C2C4B,A,B,4 | 
[V:1] c6BAB4 | 
[V:2] A2e2f2a4^g2 | 
[V:3] z12 | 
[V:4] A,8E,4 | 
[V:1] A4z2A2G2A2- | 
[V:2] a2A3Bcde2A2 | 
[V:3] c12- | 
[V:4] z2A,4A,2E,2F,2- | 
[V:1] ABc2B2B2A2B2 | 
[V:2] f4g4f2g2 | 
[V:3] c4d8 | 
[V:4] F,G,A,2G,3F,D,2G,2 | 
[V:1] A2B3cd2c2B2 | 
[V:2] f2g4a4g2- | 
[V:3] d4e2f4d2 | 
[V:4] D,2G,3F,D,2F,2G,2 | 
[V:1] cBcde2d4^c2 | 
[V:2] g2e4a3ga2 | 
[V:3] edefgfede4 | 
[V:4] C,4C,2D,2A,4 | 
[V:1] d2cBA2B4A2 | 
[V:2] f4z2d2e2f2 | 
[V:3] d8z4 | 
[V:4] D,3E,F,2G,3F,D,2 | 
[V:1] B2c2d2B2A2d2- | 
[V:2] g2e2d2g3fde | 
[V:3] z12 | 
[V:4] G,2A,2B,2G,2D4 | 
[V:1] dcABc3BG2c2 | 
[V:2] f3ec2f2e2c2 | 
[V:3] z12 | 
[V:4] D,4z4z4 | 
[V:1] B2A3GEFG2C2 | 
[V:2] d3cABc2G2A2 | 
[V:3] z12 | 
[V:4] z2F,3E,C,D,E,2F,2- | 
[V:1] F6E2D2D2 | 
[V:2] Bcd4c4B2 | 
[V:3] z12 | 
[V:4] F,E,D,C,_B,,2C,2G,4 | 
[V:1] C8z4 | 
[V:2] c8A4 | 
[V:3] e12- | 
[V:4] C,8z4 | 
[V:1] G3AB2c3BG2 | 
[V:2] G4z4z4 | 
[V:3] e12 | 
[V:4] E,3F,G,2A,3B,C2 | 
[V:1] A3Bc2d3cA2 | 
[V:2] z12 | 
[V:3] f12 | 
[V:4] F,3G,A,2_B,3CD2 | 
[V:1] B3cd2e3dB2 | 
[V:2] d4d2c2e3f | 
[V:3] g12- | 
[V:4] G,3A,B,2C3DE2 | 
[V:1] c2d4c3BB2 | 
[V:2] g2d2e2c2d4 | 
[V:3] g12 | 
[V:4] C2B,2C4G,4 | 
[V:1] c2G2A2G2F4 | 
[V:2] c4d2c2A3B | 
[V:3] e4f2e4d2 | 
[V:4] z4z4D,4 | 
[V:1] E4z4z4 | 
[V:2] cdc3AB2A2c2- | 
[V:3] e12 | 
[V:4] A,2A,4G,2A,4 | 
[V:1] z12 | 
[V:2] cdedcBB4A2 | 
[V:3] A4e2e4d2 | 
[V:4] C3B,A,2G,2F,4 | 
[V:1] z12 | 
[V:2] B4z4z4 | 
[V:3] e3dBcd3cAB | 
[V:4] E,2G,3F,D,E,F,3E, | 
[V:1] z4z4B4 | 
[V:2] z12 | 
[V:3] c6BAB4 | 
[V:4] C,D,E,2F,2A,4^G,2 | 
[V:1] c4B2A3Bc2 | 
[V:2] e4e2f4e2 | 
[V:3] A4z4z4 | 
[V:4] A,4z4z4 | 
[V:1] B2A3BcdB2A2- | 
[V:2] d3ef2e2d3e | 
[V:3] z12 | 
[V:4] z12 | 
[V:1] ABc2d2f3ee2 | 
[V:2] fge2d3ef2g2- | 
[V:3] z12 | 
[V:4] z12 | 
[V:1] d2c2B2A4^G2 | 
[V:2] gfe2d2c2B4 | 
[V:3] z12 | 
[V:4] z12 | 
[V:1] A2A2E2G3FDE | 
[V:2] A4z4z4 | 
[V:3] z12 | 
[V:4] A,4A,2E,2G,3F, | 
[V:1] FGA2G2E4D2 | 
[V:2] z12 | 
[V:3] z12 | 
[V:4] D,E,F,2G,3A,F,4 | 
[V:1] E4z2G4G2 | 
[V:2] z4e4e2e2 | 
[V:3] B8B4 | 
[V:4] E,12 | 
[V:1] A4A2c4c2 | 
[V:2] fea3gfef4 | 
[V:3] c8c4 | 
[V:4] A,12 | 
[V:1] B4z2B2B2B2 | 
[V:2] g8g4 | 
[V:3] d12- | 
[V:4] G,8z2B,2 | 
[V:1] d3cBAA4^G2 | 
[V:2] G8d4 | 
[V:3] d8d4 | 
[V:4] B,2B,2D3CB,A,B,2 | 
[V:1] A8z4 | 
[V:2] e8z4 | 
[V:3] c4c3de2B2- | 
[V:4] A,8E,3F, | 
[V:1] z12 | 
[V:2] z12 | 
[V:3] Bcd2A3Bcde2- | 
[V:4] G,2D,3E,F,G,A,2A,2 | 
[V:1] z12 | 
[V:2] z12 | 
[V:3] efgfedd4^c2 | 
[V:4] A,2G,4F,2E,4 | 
[V:1] A4A2A2B2B2 | 
[V:2] f4f2f2g2gf | 
[V:3] d4d4d2d2 | 
[V:4] D,4z2D,2G,2G,2 | 
[V:1] G4G2A3Bc2 | 
[V:2] edc2e2f4g2 | 
[V:3] e2e2c4z2c2 | 
[V:4] C,2C,2C,2F,3E,C,2 | 
[V:1] B2A4G2F2ED | 
[V:2] g2d2f3ed2cB | 
[V:3] d2d2d4d4 | 
[V:4] G,2F,2D,8 | 
[V:1] C4z2C3DEF | 
[V:2] A2c2B2c4BA | 
[V:3] e12- | 
[V:4] A,4G,2A,4G,F, | 
[V:1] G2C2G6G2 | 
[V:2] G2c2B2c3BG2 | 
[V:3] e12 | 
[V:4] E,2A,2G,2C,3D,E,2 | 
[V:1] A2c3BB2A2c2- | 
[V:2] F2f4defga2- | 
[V:3] z2A2d4c2A2 | 
[V:4] F,4G,4A,2F,2- | 
[V:1] cBB2A2d3cBA | 
[V:2] a2g2e2f2g4 | 
[V:3] d4c2A2B2e2- | 
[V:4] F,2G,2A,2D,2G,4 | 
[V:1] c3BB2A4^G2 | 
[V:2] e2f2e8 | 
[V:3] ecd3cBAB4 | 
[V:4] A,2F,2G,2A,2E,4 | 
[V:1] A12 ||  
[V:2] e12 ||  
[V:3] A12 ||  
[V:4] A,,12 ||  
[V:1]  [K:C] [K:clef=treble][M:2/1]z8 | 
[V:2]  [K:C] [K:clef=treble-8][M:2/1]f6f2 | 
[V:3]  [K:C] [K:clef=treble-8][M:2/1]z8 | 
[V:4]  [K:C] [K:clef=bass][M:2/1]z8 | 
[V:1] c6c2 | 
[V:2] e4c4 | 
[V:3] z8 | 
[V:4] z8 | 
[V:1] B4G4 | 
[V:2] d4e4 | 
[V:3] z8 | 
[V:4] z8 | 
[V:1] A4B4 | 
[V:2] f4e4- | 
[V:3] z8 | 
[V:4] z8 | 
[V:1] c4B4- | 
[V:2] e2dcd3e | 
[V:3] z8 | 
[V:4] z8 | 
[V:1] B2AGA4 | 
[V:2] f2g4^f2 | 
[V:3] z8 | 
[V:4] z8 | 
[V:1] G3AB2c2- | 
[V:2] g3fede2- | 
[V:3] z8 | 
[V:4] z8 | 
[V:1] cBAGF2E2 | 
[V:2] edcBA2G2 | 
[V:3] z8 | 
[V:4] z8 | 
[V:1] F2A4^G2 | 
[V:2] A2c2B4 | 
[V:3] z8 | 
[V:4] z8 | 
[V:1] A8 | 
[V:2] z2c4BA | 
[V:3] e8- | 
[V:4] A,8 | 
[V:1] z4z2c2- | 
[V:2] c2B2A4 | 
[V:3] e8 | 
[V:4] A,4A,4 | 
[V:1] c2BAc2B2 | 
[V:2] e4z4 | 
[V:3] e4e4- | 
[V:4] C3B,A,2G,2 | 
[V:1] A2c4BA | 
[V:2] z8 | 
[V:3] e4e4- | 
[V:4] C3B,A,2G,2 | 
[V:1] c2B2E2A2- | 
[V:2] z8 | 
[V:3] e4c4- | 
[V:4] A,2E,4F,2- | 
[V:1] A2G4FE | 
[V:2] z8 | 
[V:3] c8- | 
[V:4] F,2E,4D,C, | 
[V:1] G2FED4 | 
[V:2] z2c4B2 | 
[V:3] c4d4 | 
[V:4] E,2C,2G,4 | 
[V:1] C8 | 
[V:2] c2e4dc | 
[V:3] e8 | 
[V:4] C,8 | 
[V:1] z2G4G2 | 
[V:2] f2e2c3d/e/ | 
[V:3] z8 | 
[V:4] z8 | 
[V:1] A2G2E3F/G/ | 
[V:2] f2e3fg2 | 
[V:3] z8 | 
[V:4] z8 | 
[V:1] A2G4B2 | 
[V:2] f2e2g4 | 
[V:3] z8 | 
[V:4] z8 | 
[V:1] A2GABcd2- | 
[V:2] f2g4fe | 
[V:3] z8 | 
[V:4] z8 | 
[V:1] d2c4B2 | 
[V:2] fedcd4 | 
[V:3] z8 | 
[V:4] z8 | 
[V:1] c4B4- | 
[V:2] c4g4- | 
[V:3] e6e2 | 
[V:4] C,4E,4- | 
[V:1] B2B2B4- | 
[V:2] g2g2g4- | 
[V:3] e4e4 | 
[V:4] E,4G,4- | 
[V:1] B4A4 | 
[V:2] g4f4 | 
[V:3] d8 | 
[V:4] G,4D,4 | 
[V:1] B4A4 | 
[V:2] g2G2A4 | 
[V:3] d8 | 
[V:4] G,4F,4 | 
[V:1] G8- | 
[V:2] B8 | 
[V:3] e8- | 
[V:4] E,8- | 
[V:1] G8 | 
[V:2] z2c2c2B2 | 
[V:3] e8 | 
[V:4] E,8 | 
[V:1] z8 | 
[V:2] A2d4c2 | 
[V:3] z8 | 
[V:4] z2F,2F,2E,2 | 
[V:1] z8 | 
[V:2] B2e4d2- | 
[V:3] z8 | 
[V:4] D,2G,4F,2 | 
[V:1] z8 | 
[V:2] dcBAB4 | 
[V:3] z8 | 
[V:4] E,2A,4^G,2 | 
[V:1] c4c4 | 
[V:2] A8 | 
[V:3] e8- | 
[V:4] A,8 | 
[V:1] B4d4 | 
[V:2] z8 | 
[V:3] e4d4 | 
[V:4] z8 | 
[V:1] d2c4BA | 
[V:2] z4A4 | 
[V:3] f8 | 
[V:4] z8 | 
[V:1] G4z2G2 | 
[V:2] B4B4 | 
[V:3] e8 | 
[V:4] E,8 | 
[V:1] c4c4 | 
[V:2] c3de2f2 | 
[V:3] z4c4 | 
[V:4] A,4A,4 | 
[V:1] B2B2A4 | 
[V:2] g2g4f2 | 
[V:3] d4d4 | 
[V:4] G,4D,4 | 
[V:1] G3AB2c2- | 
[V:2] g4g2e2- | 
[V:3] d6c2 | 
[V:4] G,4G,2A,2- | 
[V:1] c2B2c2d2- | 
[V:2] efg2c2f2- | 
[V:3] e4e2d2 | 
[V:4] A,2G,2A,2D,2- | 
[V:1] dcABc2B2- | 
[V:2] fed2c2g2- | 
[V:3] f4e4 | 
[V:4] D,E,F,G,A,2E,2 | 
[V:1] B2A4^G2 | 
[V:2] gaf2e4- | 
[V:3] c2d2B4 | 
[V:4] F,2D,2E,4 | 
[V:1] A4z2E2- | 
[V:2] e2c2c4 | 
[V:3] A8 | 
[V:4] z8 | 
[V:1] EFGAB2c2- | 
[V:2] z4z2A2- | 
[V:3] z8 | 
[V:4] z8 | 
[V:1] c2BAG2A2 | 
[V:2] ABcde2f2- | 
[V:3] z8 | 
[V:4] z8 | 
[V:1] F4E2A2- | 
[V:2] f2edc2d2 | 
[V:3] z8 | 
[V:4] z8 | 
[V:1] A^GG2A2E2- | 
[V:2] B4A4 | 
[V:3] z8 | 
[V:4] z8 | 
[V:1] E2G4F2 | 
[V:2] c4B2A2 | 
[V:3] z8 | 
[V:4] z8 | 
[V:1] E2G3ABc | 
[V:2] c3defd2 | 
[V:3] z8 | 
[V:4] z8 | 
[V:1] A2G4d2- | 
[V:2] c4g2f2 | 
[V:3] z8 | 
[V:4] z8 | 
[V:1] d2c2d2B2- | 
[V:2] g2e2f2d2- | 
[V:3] z8 | 
[V:4] z8 | 
[V:1] BAG4^F2 | 
[V:2] dcB2A4 | 
[V:3] z8 | 
[V:4] z8 | 
[V:1] G8 | 
[V:2] G4z2B2 | 
[V:3] e8 | 
[V:4] E,8 | 
[V:1] z8 | 
[V:2] B4c4 | 
[V:3] e4e4 | 
[V:4] E,4E,4 | 
[V:1] z8 | 
[V:2] d4c4- | 
[V:3] f8 | 
[V:4] D,4A,4- | 
[V:1] z8 | 
[V:2] c2BAc2G2 | 
[V:3] f4e4 | 
[V:4] A,2G,F,A,2E,2 | 
[V:1] z8 | 
[V:2] B4A4 | 
[V:3] e4d4 | 
[V:4] G,4F,4 | 
[V:1] G6G2 | 
[V:2] B4B2c2- | 
[V:3] e8 | 
[V:4] E,8 | 
[V:1] G4F4 | 
[V:2] cBe4d2 | 
[V:3] z8 | 
[V:4] z8 | 
[V:1] E4E2F2- | 
[V:2] e4z4 | 
[V:3] z8 | 
[V:4] A,6A,2 | 
[V:1] F2E4D2 | 
[V:2] z8 | 
[V:3] z8 | 
[V:4] G,4F,4 | 
[V:1] E4z2A2- | 
[V:2] z8 | 
[V:3] z8 | 
[V:4] E,2A,3B,C2 | 
[V:1] ABc2d2A2 | 
[V:2] z8 | 
[V:3] z8 | 
[V:4] D2A,2B,2C2- | 
[V:1] B2c3BAG | 
[V:2] z8 | 
[V:3] z8 | 
[V:4] CB,A,G,F,E,A,2- | 
[V:1] F2E4D2 | 
[V:2] z8 | 
[V:3] z8 | 
[V:4] A,2G,2F,4 | 
[V:1] E8 | 
[V:2] B4B2c2- | 
[V:3] e8- | 
[V:4] E,8- | 
[V:1] z8 | 
[V:2] c2BAB2c2 | 
[V:3] e8 | 
[V:4] E,8 | 
[V:1] z8 | 
[V:2] d2e4d2 | 
[V:3] f2e2f4 | 
[V:4] z8 | 
[V:1] G8 | 
[V:2] e4B4 | 
[V:3] e8 | 
[V:4] E,8 | 
[V:1] c4c4 | 
[V:2] c4c4 | 
[V:3] e8 | 
[V:4] A,4A,4 | 
[V:1] A6Bc | 
[V:2] d8 | 
[V:3] f8 | 
[V:4] D,4D,4 | 
[V:1] d4d4 | 
[V:2] d8 | 
[V:3] f8 | 
[V:4] D,4D,4 | 
[V:1] G4z2G2- | 
[V:2] B6G2 | 
[V:3] e8- | 
[V:4] E,8 | 
[V:1] G2ABc2B2- | 
[V:2] G8 | 
[V:3] e8 | 
[V:4] E,4E,4 | 
[V:1] B2AGA2G2- | 
[V:2] z8 | 
[V:3] z8 | 
[V:4] G,3A,/B,/C2B,2- | 
[V:1] G2ABc2B2- | 
[V:2] z8 | 
[V:3] z8 | 
[V:4] B,2A,G,A,2G,2- | 
[V:1] B2AGA2G2 | 
[V:2] z8 | 
[V:3] z8 | 
[V:4] G,2A,B,C2B,2- | 
[V:1] d4c2B2- | 
[V:2] z8 | 
[V:3] z8 | 
[V:4] B,2A,G,A,2G,2 | 
[V:1] B2A4^G2 | 
[V:2] z8 | 
[V:3] z8 | 
[V:4] A,2C2B,4 | 
[V:1] A8 | 
[V:2] c6c2 | 
[V:3] e8 | 
[V:4] A,4z2A,2- | 
[V:1] z4c4- | 
[V:2] B2B2A2c2- | 
[V:3] e4e4- | 
[V:4] A,2G,2A,4 | 
[V:1] c2c2B2B2 | 
[V:2] cBA4^G2 | 
[V:3] e4e4 | 
[V:4] A,4E,4 | 
[V:1] A2c3BA2- | 
[V:2] A8 | 
[V:3] e8- | 
[V:4] z2C2C2C2 | 
[V:1] A2^G2A4 | 
[V:2] E4z4 | 
[V:3] e4c4- | 
[V:4] B,4A,4- | 
[V:1] E4z2E2 | 
[V:2] z8 | 
[V:3] c4c4 | 
[V:4] A,2A,2A,2A,2 | 
[V:1] G2G4G2 | 
[V:2] z4e4 | 
[V:3] d4B4 | 
[V:4] G,4G,4 | 
[V:1] A4A2G2- | 
[V:2] f4f2e2- | 
[V:3] c8 | 
[V:4] F,6C,2 | 
[V:1] G2E2F2ED | 
[V:2] e2c2d4 | 
[V:3] z4z2g2- | 
[V:4] C,4z4 | 
[V:1] C4D4 | 
[V:2] e4A4 | 
[V:3] g2e2f2ed | 
[V:4] E,4D,2D,2 | 
[V:1] E3FG2A2- | 
[V:2] z8 | 
[V:3] c3de2f2- | 
[V:4] A,4G,2F,2- | 
[V:1] A2G2F4 | 
[V:2] z8 | 
[V:3] f2e4d2 | 
[V:4] F,E,C,2D,4 | 
[V:1] [M:3/1]E8z4 | 
[V:2] [M:3/1]c4c4B4 | 
[V:3] [M:3/1]c8z4 | 
[V:4] [M:3/1]A,8z4 | 
[V:1] z12 | 
[V:2] A2B2c2d2e4 | 
[V:3] z12 | 
[V:4] F,4F,4E,4 | 
[V:1] z12 | 
[V:2] f4d6c2 | 
[V:3] z12 | 
[V:4] D,6E,2F,2G,2 | 
[V:1] E4E4D4 | 
[V:2] c4B8 | 
[V:3] z12 | 
[V:4] A,8^G,4 | 
[V:1] C2D2E2F2G4 | 
[V:2] A8z4 | 
[V:3] z12 | 
[V:4] A,8G,4 | 
[V:1] A8^G4 | 
[V:2] z12 | 
[V:3] c4c4B4 | 
[V:4] F,4E,8 | 
[V:1] A12 | 
[V:2] z12 | 
[V:3] A6B2c2d2 | 
[V:4] F,6G,2A,2B,2 | 
[V:1] z12 | 
[V:2] z12 | 
[V:3] e4f6e2 | 
[V:4] C4A,6G,2 | 
[V:1] z12 | 
[V:2] z12 | 
[V:3] e8d4 | 
[V:4] E,4F,8 | 
[V:1] G8G4 | 
[V:2] B8B4 | 
[V:3] e8z4 | 
[V:4] E,8z4 | 
[V:1] A4c8 | 
[V:2] A4e4f4 | 
[V:3] c8c4 | 
[V:4] A,8A,4 | 
[V:1] B4A8 | 
[V:2] g4c8 | 
[V:3] d4f8 | 
[V:4] G,4F,6E,2 | 
[V:1] G6E2F4 | 
[V:2] c8B4 | 
[V:3] e6d2d4 | 
[V:4] C,8D,4 | 
[V:1] E2F2G2A2B4 | 
[V:2] c4g6f2 | 
[V:3] e8d4 | 
[V:4] C,2D,2E,2F,2G,4 | 
[V:1] c8B4 | 
[V:2] f4g8 | 
[V:3] c4d8 | 
[V:4] A,4G,8 | 
[V:1] c8d4 | 
[V:2] e6dcB4 | 
[V:3] c8z4 | 
[V:4] C,3D,E,2F,2D,4 | 
[V:1] e8d2c2 | 
[V:2] c4e4f4 | 
[V:3] c8d4 | 
[V:4] C,8z4 | 
[V:1] B4G4A4 | 
[V:2] g8z4 | 
[V:3] e8d2c2 | 
[V:4] G,4E,4F,4 | 
[V:1] B2c2d2e2c4 | 
[V:2] g8c2d2 | 
[V:3] B4G4A4 | 
[V:4] G,6E,2F,4 | 
[V:1] B8A4 | 
[V:2] e2f2g4a4 | 
[V:3] B2c2d2e2c4 | 
[V:4] G,6E,2F,4 | 
[V:1] B4c8 | 
[V:2] g8^f4 | 
[V:3] d6B2c4 | 
[V:4] G,4A,8 | 
[V:1] B2d4cBA4 | 
[V:2] g8z4 | 
[V:3] d4B2c2d4 | 
[V:4] G,8F,4 | 
[V:1] G6A2B2c2 | 
[V:2] g8g4 | 
[V:3] e8e4 | 
[V:4] G,4E,8 | 
[V:1] d4c2B4A2 | 
[V:2] a4g4a4 | 
[V:3] f4e6c2 | 
[V:4] D,4E,4F,4 | 
[V:1] A8^G4 | 
[V:2] f4e8 | 
[V:3] d4B8 | 
[V:4] D,4E,8 | 
[V:1] A12 |]  
[V:2] e12 |]  
[V:3] A12 |]  
[V:4] A,12 |]  



